dist/svg/plan-add.svg

<!-- Generated by Trend Micro Style Portal -->
<svg version="1.1" xmlns="http://www.w3.org/2000/svg" width="16" height="16" viewBox="0 0 16 16">
  <title>plan-add</title>
  <path fill="rgb(34,34,34)" d="M13 11h3v2h-3v3h-2v-3h-3v-2h3v-3h2v3zM1 7c0.6 0 1-0.4 1-1s-0.4-1-1-1-1 0.4-1 1c0 0.6 0.4 1 1 1zM3 2c-0.6 0-1 0.4-1 1s0.4 1 1 1 1-0.4 1-1c0-0.6-0.4-1-1-1zM6 0c-0.6 0-1 0.4-1 1s0.4 1 1 1 1-0.4 1-1c0-0.6-0.4-1-1-1zM10 2c0.6 0 1-0.4 1-1s-0.4-1-1-1-1 0.4-1 1c0 0.6 0.4 1 1 1zM13 4c0.6 0 1-0.4 1-1s-0.4-1-1-1-1 0.4-1 1c0 0.6 0.4 1 1 1zM15 7c0.6 0 1-0.4 1-1s-0.4-1-1-1-1 0.4-1 1c0 0.6 0.4 1 1 1zM1 9c-0.6 0-1 0.4-1 1s0.4 1 1 1 1-0.4 1-1c0-0.6-0.4-1-1-1zM3 12c-0.6 0-1 0.4-1 1s0.4 1 1 1 1-0.4 1-1c0-0.6-0.4-1-1-1zM6 14c-0.6 0-1 0.4-1 1s0.4 1 1 1 1-0.4 1-1c0-0.6-0.4-1-1-1z"></path>
</svg>

<svg width="16" height="16" viewBox="0 0 16 16" fill="rgb(34, 34, 34)" xmlns="http://www.w3.org/2000/svg"><title>plan-add</title><path d="M13 11H16V13H13V16H11V13H8V11H11V8H13V11ZM1 7C1.6 7 2 6.6 2 6C2 5.4 1.6 5 1 5C0.4 5 0 5.4 0 6C0 6.6 0.4 7 1 7ZM3 2C2.4 2 2 2.4 2 3C2 3.6 2.4 4 3 4C3.6 4 4 3.6 4 3C4 2.4 3.6 2 3 2ZM6 0C5.4 0 5 0.4 5 1C5 1.6 5.4 2 6 2C6.6 2 7 1.6 7 1C7 0.4 6.6 0 6 0ZM10 2C10.6 2 11 1.6 11 1C11 0.4 10.6 0 10 0C9.4 0 9 0.4 9 1C9 1.6 9.4 2 10 2ZM13 4C13.6 4 14 3.6 14 3C14 2.4 13.6 2 13 2C12.4 2 12 2.4 12 3C12 3.6 12.4 4 13 4ZM15 7C15.6 7 16 6.6 16 6C16 5.4 15.6 5 15 5C14.4 5 14 5.4 14 6C14 6.6 14.4 7 15 7ZM1 9C0.4 9 0 9.4 0 10C0 10.6 0.4 11 1 11C1.6 11 2 10.6 2 10C2 9.4 1.6 9 1 9ZM3 12C2.4 12 2 12.4 2 13C2 13.6 2.4 14 3 14C3.6 14 4 13.6 4 13C4 12.4 3.6 12 3 12ZM6 14C5.4 14 5 14.4 5 15C5 15.6 5.4 16 6 16C6.6 16 7 15.6 7 15C7 14.4 6.6 14 6 14Z" fill="rgb(34, 34, 34)" fill-opacity="1.00"/></svg>
